docs/img/hero/iconWriting.svg

<svg width="15" height="15" fill="none" xmlns="http://www.w3.org/2000/svg"><path fill-rule="evenodd" clip-rule="evenodd" d="M3.68979 2.75C3.89667 2.74979 4.08232 2.87701 4.15679 3.07003L7.36662 11.39C7.46602 11.6477 7.33774 11.9371 7.0801 12.0365C6.82247 12.1359 6.53304 12.0076 6.43365 11.75L5.3825 9.02537H2.01133L0.966992 11.749C0.868128 12.0068 0.578964 12.1357 0.321126 12.0369C0.0632879 11.938 -0.0655864 11.6488 0.0332774 11.391L3.22344 3.07099C3.29751 2.87782 3.4829 2.75021 3.68979 2.75ZM3.69174 4.64284L5.05458 8.17537H2.33724L3.69174 4.64284ZM10.8989 5.20703C9.25818 5.20703 8.00915 6.68569 8.00915 8.60972C8.00915 10.6337 9.35818 12.0124 10.8989 12.0124C11.7214 12.0124 12.5744 11.6692 13.1543 11.0219V11.53C13.1543 11.7785 13.3557 11.98 13.6043 11.98C13.8528 11.98 14.0543 11.7785 14.0543 11.53V5.72C14.0543 5.47147 13.8528 5.27 13.6043 5.27C13.3557 5.27 13.1543 5.47147 13.1543 5.72V6.22317C12.6054 5.60095 11.7924 5.20703 10.8989 5.20703ZM13.1543 9.79823V7.30195C12.7639 6.58101 11.9414 6.05757 11.0868 6.05757C10.1088 6.05757 9.03503 6.96581 9.03503 8.60955C9.03503 10.1533 10.0088 11.1615 11.0868 11.1615C11.9701 11.1615 12.7719 10.4952 13.1543 9.79823Z" fill="white"/></svg>

<svg width="15" height="15" fill="none" xmlns="http://www.w3.org/2000/svg"><path fill-rule="evenodd" clip-rule="evenodd" d="M3.69 2.75a.5.5 0 0 1 .467.32l3.21 8.32a.5.5 0 0 1-.933.36L5.383 9.025H2.01L.967 11.75a.5.5 0 0 1-.934-.358l3.19-8.32a.5.5 0 0 1 .467-.321Zm.002 1.893 1.363 3.532H2.337l1.355-3.532Zm7.207.564c-1.64 0-2.89 1.479-2.89 3.403 0 2.024 1.35 3.402 2.89 3.402a3.06 3.06 0 0 0 2.255-.99v.508a.45.45 0 1 0 .9 0V5.72a.45.45 0 0 0-.9 0v.503A3.01 3.01 0 0 0 10.9 5.207Zm2.255 4.591V7.302c-.39-.721-1.213-1.244-2.067-1.244-.978 0-2.052.908-2.052 2.552 0 1.543.974 2.552 2.052 2.552.883 0 1.685-.667 2.067-1.364Z" fill="#fff"/></svg>
